svgs/duotone/lock-open.svg

<svg xmlns="http://www.w3.org/2000/svg" viewBox="0 0 576 512"><!--! Font Awesome Pro 6.4.2 by @fontawesome - https://fontawesome.com License - https://fontawesome.com/license (Commercial License) Copyright 2023 Fonticons, Inc. --><path class="fa-primary" style="fill:var(--fa-primary-color,inherit);opacity:var(--fa-primary-opacity,1);" d="M0 256c0-35.3 28.7-64 64-64H384c35.3 0 64 28.7 64 64V448c0 35.3-28.7 64-64 64H64c-35.3 0-64-28.7-64-64V256z"/><path class="fa-secondary" style="fill:var(--fa-secondary-color,inherit);opacity:var(--fa-secondary-opacity,.4);" d="M432 64c-44.2 0-80 35.8-80 80v48H288V144C288 64.5 352.5 0 432 0s144 64.5 144 144v48c0 17.7-14.3 32-32 32s-32-14.3-32-32V144c0-44.2-35.8-80-80-80z"/></svg>

<svg xmlns="http://www.w3.org/2000/svg" viewBox="0 0 576 512"><!--! Font Awesome Pro 6.1.1 by @fontawesome - https://fontawesome.com License - https://fontawesome.com/license (Commercial License) Copyright 2022 Fonticons, Inc. --><defs><style>.fa-secondary{opacity:.4}</style></defs><path class="fa-primary" d="M0 256C0 220.7 28.65 192 64 192H384C419.3 192 448 220.7 448 256V448C448 483.3 419.3 512 384 512H64C28.65 512 0 483.3 0 448V256z"/><path class="fa-secondary" d="M432 64C387.8 64 352 99.82 352 144V192H288V144C288 64.47 352.5 0 432 0C511.5 0 576 64.47 576 144V192C576 209.7 561.7 224 544 224C526.3 224 512 209.7 512 192V144C512 99.82 476.2 64 432 64z"/></svg>
